d1 $ sound "bd sn"

-- Build arpeggios from notes

d1 $ n "c a f e"
  # sound "supermandolin"

d1 $ n "<c a f e>"
  # sound "supermandolin"

d1 $ n (off 0.125 (|+ 7) "<c a f e>")
  # sound "supermandolin"

d1 $ n (off 0.125 (|+ 7)  "<c*2 a(3,8) f(3,8,2) e*2>")
  # sound "supermandolin"
  # legato 2

d1 $ jux rev $ n (off 0.125 (|+ 7)  "<c*2 a(3,8) f(3,8,2) e*2>")
  # sound "supermandolin"
  # legato 2

d1 $ jux rev $ n (off 0.125 (|+ 12) $ off 0.125 (|+ 7)  "<c*2 a(3,8) f(3,8,2) e*2>")
  # sound "supermandolin"
  # legato 2

-- Build arpeggios from chords

d1 $ n "c'maj"
  # sound "supermandolin"
  # legato 2

d1 $ arp "up" $ n "c'maj"
  # sound "supermandolin"
  # sustain 0.5

d1 $ arp "up" $ n "c'maj'4"
  # sound "supermandolin"
  # sustain 0.5

d1 $ arp "up" $ n "c'maj'4 e'min"
  # sound "supermandolin"
  # sustain 0.5

d1 $ arp "pinkyup" $ n "c'maj'4 e'min"
  # sound "supermandolin"
  # sustain 0.5

d1 $ arp "<pinkyup down thumbup up>" $ n "c'maj'4 e'min"
  # sound "supermandolin"
  # sustain 0.5

d1 $ jux rev $ arp "<pinkyup down thumbup up>" $ n "<c'maj'4 e4'min'8 f4'maj'4>"
  # sound "supermandolin"
  # sustain 2 # room 0.3 # sz 0.9

d1 $ chunk 4 (|- note 5) $ jux rev $ 
  arp "<pinkyup down thumbup up>" $ n "<c'maj'4 e4'min'8 f4'maj'4>"
  # sound "supermandolin"
  # sustain 2 # room 0.3 # sz 0.9

-- Build rhythm 1

d1 $ sound "bd sn"

d1 $ sound "bd sn:3"

d1 $ sound "bd*2 [~ sn:3]"

d1 $ sound "bd*2 [[~ lt] sn:3] lt:1 [ht mt*2]"

d1 $ every 2 (0.25 <~) $ sound "bd*2 [[~ lt] sn:3] lt:1 [ht mt*2]"

d1 $ every 2 ("<0.25 0.125 0.5>" <~) $ sound "bd*2 [[~ lt] sn:3] lt:1 [ht mt*2]"

d1 $ every 2 ("<0.25 0.125 0.5>" <~) $ sound "bd*2 [[~ lt] sn:3] lt:1 [ht mt*2]"
  # squiz "<1 2.5 2>"
  # room (slow 4 $ range 0 0.2 saw)
  # sz 0.5
  # orbit 1

d1 $ jux' [id,rev,(# speed 2)] $ every 2 ("<0.25 0.125 0.5>" <~) $ sound "bd*2 [[~ lt] sn:3] lt:1 [ht mt*2]"
  # squiz "<1 2.5 2>"
  # room (slow 4 $ range 0 0.2 saw)
  # sz 0.5
  # orbit 1


-- Build rhythm 2

d1 $ n "0 0 [2 0] [2 3]" # sound "feel" # speed 1.5

d1 $ n "0 <0 4> [2 0] [2 3]" # sound "feel" # speed 1.5

d1 $ every 2 (rot "<1 3 2>") $ n "0 <0 4> [2 0] [2 3]" # sound "feel" # speed 1.5

d1 $ jux rev $ every 2 (rot "<1 3 2>") $ n "0 <0 4> [2 0] [2 3]" # sound "feel" # speed 1.5

d1 $ juxBy 0.4 rev $ every 2 (rot "<1 3 2>") $ n "0 <0 4> [2 0] [2 3]" # sound "feel" # speed 1.5

d1 $ juxBy 0.4 rev $ every 2 (rot "<1 3 2>") $ n "0 <0 4> [2 0] [2 3]" # sound "feel" # speed "1.75 2"

d1 $ off 0.25 (# vowel "<a o i>")
  $ juxBy 0.4 rev $ every 2 (rot "<1 3 2>") $ n "0 <0 4> [2 0] [2 3]" # sound "feel" # speed "1.75 2"

d2 $ juxBy 0.5 rev $ chunk 4 ((+ speed (1 + sine)) . ply 8) $ note "3(3,8)" # sound "bass"
  # speed "<2 4>"
  # legato 1